svgs/sharp-regular/hot-tub-person.svg

<svg xmlns="http://www.w3.org/2000/svg" viewBox="0 0 512 512"><!--! Font Awesome Pro 6.6.0 by @fontawesome - https://fontawesome.com License - https://fontawesome.com/license (Commercial License) Copyright 2024 Fonticons, Inc. --><path d="M64 0a64 64 0 1 1 0 128A64 64 0 1 1 64 0zm64 160l128 96 120 0 24 0 64 0 48 0 0 48 0 160 0 48-48 0L48 512 0 512l0-48L0 336l0-56 0-24 0-48 0-48 48 0 80 0zm-16 48l-64 0 0 48 88 0 40 0-64-48zM48 336l0 128 64 0 0-160-64 0 0 32zM232 464l0-160-72 0 0 160 72 0zm120 0l0-160-72 0 0 160 72 0zm48 0l64 0 0-160-64 0 0 160zM272 24c0 26.7 14.3 46.4 35 73.4l1.4 1.9C327.5 124 352 155.8 352 200l0 24-48 0 0-24c0-26.7-14.3-46.4-35-73.4l-1.4-1.9C248.5 100 224 68.2 224 24l0-24 48 0 0 24zm112 0c0 26.7 14.3 46.4 35 73.4l1.4 1.9C439.5 124 464 155.8 464 200l0 24-48 0 0-24c0-26.7-14.3-46.4-35-73.4l-1.4-1.9C360.5 100 336 68.2 336 24l0-24 48 0 0 24z"/></svg>

<svg xmlns="http://www.w3.org/2000/svg" viewBox="0 0 512 512"><!--! Font Awesome Pro 6.4.0 by @fontawesome - https://fontawesome.com License - https://fontawesome.com/license (Commercial License) Copyright 2023 Fonticons, Inc. --><path d="M64 0a64 64 0 1 1 0 128A64 64 0 1 1 64 0zm64 160l128 96H376l24 0 64 0h48v48V464v48H464 48 0V464 336 280 256 208 160H48h80zm-16 48H48v48l88 0h40l-64-48zM48 336V464h64V304H48v32zM232 464V304H160V464h72zm120 0V304l-72 0V464h72zm48 0h64V304H400V464zM272 24c0 26.7 14.3 46.4 35 73.4l1.4 1.9C327.5 124 352 155.8 352 200v24H304V200c0-26.7-14.3-46.4-35-73.4l-1.4-1.9C248.5 100 224 68.2 224 24V0h48V24zm112 0c0 26.7 14.3 46.4 35 73.4l1.4 1.9C439.5 124 464 155.8 464 200v24H416V200c0-26.7-14.3-46.4-35-73.4l-1.4-1.9C360.5 100 336 68.2 336 24V0h48V24z"/></svg>
